X:1
T:The Bridge of Banff
T:The Bridge of Banff
T:Alexander Walker
C:Alexander Walker
L:1/8
Q:1/8=232
M:4/4
K:C
V:1 treble 
V:1
|: C | A,2 EA, AA, EC | B,G DG B,G, G,B, | A,2 EA, AA, ED | CA B,^G AA, A,C | A,2 EA, AA, EC | %6
 B,G DG B,G, G,B, | A,2 EA, AA, ED | CA B,^G AA, A,E | A2 cA eA c2 | Bg dg BG GB | A2 cA eA c2 | %12
 BE ^GE A2 AB | A/A/A cA eA cA | G/G/G BG dA Bd | ec dB cA BG | AF ED CA,A, :| %17

